X:1
T:Santiano
C:Folksong, fichier abc : Bernard Loffet
L:1/8
Q:506
M:2/2
K:C
 z4 [e2A,,2]A,2 | [A2A,,2][A2A,2] [A2A,,2][B2A,2] | [c2A,,2]A,2 [c2A,,2][d2A,2] | \
 [e2C,,2]C,2 [e2C,,2]C,2 | [d2G,,2]G,2 [g2G,,2][g2G,2] | [e2A,,2]A,2 A,,2A,2 | A,,2A,2 [A2A,,2][B2A,2] | \
 [c2G,,2][d2G,2] [d2G,,2]G,2 | G,,2G,2 G,,2G,2 | [d2G,,2]G,2 [d2G,,2]G,2 | [d2G,,2]G,2 [B2G,,2][c2G,2] | \
 [d2G,,2]G,2 [B2G,,2]G,2 | [G2E,,2]E,2 [A2A,,2][B2E,2] | [c2A,,2]A,2 [c2A,,2]A,2 | \
 [B2E,,2]E,2 [G2E,,2]E,2 | [A2A,,2]A,2 [A2A,,2]A,2 | [A2A,,2]A,6 | \
W:Created with TablEdit http://www.tabledit.com/ by Bernard Loffet
